X:145
T: Jack's Jug Jig
M: 6/8
L: 1/8
R: jig
S: Jack Doyle
Z: B.Black
K: D
A | dcB cBA | BAF A2 F | GFG =cGE | DED D2 A |
dcB cBA | BAF A2 F | GFG =cGE | DED D2 :|
A | dAd edA | dAd edA | G3 =cGE | GAB =cde |
dAd edA | dAd edA | G3 =cGE | DED D2 :|
